src/icons/outline/status/error.svg

<svg width="24" height="24" viewBox="0 0 24 24" fill="none" xmlns="http://www.w3.org/2000/svg">
<g clip-path="url(#clip0_1_2078)">
<path d="M11.9862 16C12.4975 16.0001 12.99 16.4834 12.9901 16.9951C12.9901 17.5069 12.4976 17.9999 11.9862 18C11.4748 17.9999 10.992 17.5069 10.992 16.9951C10.9921 16.4834 11.4748 16.0001 11.9862 16Z" fill="#1D1B20"/>
<path d="M11.9911 7C12.5415 7.00008 12.99 7.38719 12.9901 7.8623V14.1377C12.99 14.6128 12.5415 14.9999 11.9911 15C11.4405 15 10.9922 14.6129 10.992 14.1377V7.8623C10.9922 7.38714 11.4405 7 11.9911 7Z" fill="#1D1B20"/>
<path fill-rule="evenodd" clip-rule="evenodd" d="M11.993 3C12.6588 3.00005 13.2624 3.32472 13.6161 3.8584L22.6678 17.8818C23.0628 18.4887 23.0937 19.2733 22.7713 19.9219C22.4385 20.581 21.7729 20.9998 21.0448 21H2.94224C2.214 21 1.55804 20.5916 1.2147 19.9219C0.881952 19.2732 0.924013 18.4992 1.3192 17.8818L10.37 3.8584C10.7133 3.3143 11.3273 3.00005 11.993 3ZM11.993 4.56934C11.9866 4.56966 11.7638 4.5823 11.6815 4.71582L2.62974 18.7393C2.54651 18.8753 2.53641 19.0644 2.60924 19.2109C2.6821 19.3467 2.80717 19.4307 2.94224 19.4307H21.034C21.1691 19.4306 21.3046 19.3467 21.367 19.2109C21.4398 19.0645 21.4297 18.8753 21.3465 18.7393L12.3055 4.71582C12.2223 4.58012 12.0452 4.56936 11.993 4.56934Z" fill="#1D1B20"/>
</g>
<defs>
<clipPath id="clip0_1_2078">
<rect width="24" height="24" fill="white"/>
</clipPath>
</defs>
</svg>

<svg xmlns="http://www.w3.org/2000/svg" width="24" height="24" fill="none" viewBox="0 0 24 24"><g fill="currentColor" clip-path="url(#a)"><path d="M11.986 16c.511 0 1.004.483 1.004.995S12.498 18 11.986 18c-.511 0-.994-.493-.994-1.005s.483-.995.994-.995m.005-9c.55 0 .999.387 1 .862v6.276c-.001.475-.45.862-1 .862s-.999-.387-.999-.862V7.862c0-.475.448-.862 1-.862"/><path fill-rule="evenodd" d="M11.993 3c.666 0 1.27.325 1.623.858l9.052 14.024a2.07 2.07 0 0 1 .103 2.04A1.94 1.94 0 0 1 21.045 21H2.942c-.728 0-1.384-.408-1.727-1.078a2.05 2.05 0 0 1 .104-2.04L10.37 3.858c.343-.544.957-.858 1.623-.858m0 1.57c-.006 0-.23.012-.312.146L2.63 18.739a.5.5 0 0 0-.02.472c.072.136.197.22.332.22h18.092c.135 0 .27-.084.333-.22a.5.5 0 0 0-.02-.472L12.305 4.716c-.083-.136-.26-.147-.312-.147" clip-rule="evenodd"/></g><defs><clipPath id="a"><path fill="currentColor" d="M0 0h24v24H0z"/></clipPath></defs></svg>
